X:958
T:Reel 958
M:4/4
K:Dmix
L:1/8
FG|ADDB, C2FG|AD (3DCD EAGE|A,DDE DEFG| (3ABc GF EFGE|DA, (3A,B,C DEFD|A,D (3EDC EGG2|A,DDF EDDd|dcAG EDD2|Addc d2de|fddc  (3cBc ec|dBGB c2cd|ecdB cAGB|Addc A2cd|efed cAAB|cBce dcdB|cAGB cDEC|
